client/src/images/crew-image-overlay.svg

<svg width="248" height="255" fill="none" xmlns="http://www.w3.org/2000/svg">
  <path d="M.4009 88.1741c7.9147-26.1024 24.8018-49.9917 47.953-65.7632 11.4815-7.9634 24.3376-14.0673 37.91-17.9162C99.8682.799 114.126-.7295 128.242.328c14.116.9408 28.121 4.0874 41.311 9.4215 13.188 5.3799 25.227 13.3344 35.817 22.7712 10.491 9.5216 19.837 20.5357 26.471 33.119 6.725 12.4972 11.412 26.0396 13.809 39.9593 2.534 13.923 2.187 28.215-.026 42.062-2.3 13.839-6.65 27.416-13.49 39.661-13.46 24.475-34.554 44.923-60.187 56.078-12.711 5.674-26.301 9.33-40.132 10.715-6.933.332-13.869.772-20.79.269-6.913-.549-13.7812-1.544-20.524-3.114-26.9829-6.324-51.5147-21.861-68.7579-43.217-.5893-.73-.4731-1.798.2594-2.386.7167-.574 1.7579-.477 2.354.209l.0141.017c17.522 20.181 41.6919 34.185 67.5191 39.266 6.457 1.26 12.9973 1.966 19.5423 2.253 6.56.242 13.088-.43 19.58-.957 12.939-1.773 25.481-5.658 37.072-11.342 23.319-11.219 42.153-30.675 53.186-53.42 5.659-11.343 8.966-23.705 10.383-36.115 1.289-12.418.927-25.075-1.981-37.11-2.69-12.0504-7.107-23.645-13.333-34.205-6.295-10.5006-13.996-20.1598-23.106-28.3319-9.094-8.193-19.507-14.8392-30.623-20.0435-11.22-5.0141-23.266-8.0962-35.576-9.4745-12.327-1.5807-24.964-.7948-37.2126 1.809-12.3128 2.4383-24.3219 6.9675-35.378 13.3883-11.0718 6.4184-21.0552 14.7633-30.0026 24.2849C15.5625 65.5137 8.3322 76.7467 2.5599 88.912l-.037.0764c-.2683.5674-.9497.8101-1.5177.5415-.5179-.2436-.7649-.8258-.6043-1.3558z" fill="#F4B935"/>
</svg>

<svg width="248" height="255" viewBox="0 0 248 255" fill="none" xmlns="http://www.w3.org/2000/svg">
<path d="M0.400889 88.1741C8.31556 62.0717 25.2027 38.1824 48.3539 22.4109C59.8354 14.4475 72.6915 8.3436 86.2639 4.49472C99.8682 0.79903 114.126 -0.729489 128.242 0.327998C142.358 1.26879 156.363 4.41536 169.553 9.74948C182.741 15.1294 194.78 23.0839 205.37 32.5207C215.861 42.0423 225.207 53.0564 231.841 65.6397C238.566 78.1369 243.253 91.6793 245.65 105.599C248.184 119.522 247.837 133.814 245.624 147.661C243.324 161.5 238.974 175.077 232.134 187.322C218.674 211.797 197.58 232.245 171.947 243.4C159.236 249.074 145.646 252.73 131.815 254.115C124.882 254.447 117.946 254.887 111.025 254.384C104.112 253.835 97.2438 252.84 90.501 251.27C63.5181 244.946 38.9863 229.409 21.7431 208.053C21.1538 207.323 21.27 206.255 22.0025 205.667C22.7192 205.093 23.7604 205.19 24.3565 205.876L24.3706 205.893C41.8926 226.074 66.0625 240.078 91.8897 245.159C98.3467 246.419 104.887 247.125 111.432 247.412C117.992 247.654 124.52 246.982 131.012 246.455C143.951 244.682 156.493 240.797 168.084 235.113C191.403 223.894 210.237 204.438 221.27 181.693C226.929 170.35 230.236 157.988 231.653 145.578C232.942 133.16 232.58 120.503 229.672 108.468C226.982 96.4176 222.565 84.823 216.339 74.263C210.044 63.7624 202.343 54.1032 193.233 45.9311C184.139 37.7381 173.726 31.0919 162.61 25.8876C151.39 20.8735 139.344 17.7914 127.034 16.4131C114.707 14.8324 102.07 15.6183 89.8214 18.2221C77.5086 20.6604 65.4995 25.1896 54.4434 31.6104C43.3716 38.0288 33.3882 46.3737 24.4408 55.8953C15.5625 65.5137 8.33216 76.7467 2.5599 88.912L2.52285 88.9884C2.25457 89.5558 1.57323 89.7985 1.00516 89.5299C0.487334 89.2863 0.240347 88.7041 0.400889 88.1741Z" fill="#F4B935"/>
</svg>
